svg/cloud_off.svg

<svg xmlns="http://www.w3.org/2000/svg" viewBox="0 0 24 24"><path d="M19.8 22.6 17.15 20H6.5q-2.3 0-3.9-1.6T1 14.5q0-1.92 1.19-3.42 1.19-1.51 3.06-1.93.08-.2.15-.39.1-.19.15-.41L1.4 4.2l1.4-1.4 18.4 18.4m.4-2.45L8.05 5.23q.88-.6 1.86-.92Q10.9 4 12 4q2.93 0 4.96 2.04Q19 8.07 19 11q1.73.2 2.86 1.5 1.14 1.28 1.14 3 0 1-.37 1.81-.38.84-1.03 1.44"/></svg>

<svg xmlns="http://www.w3.org/2000/svg" id="mdi-cloud-off" viewBox="0 0 24 24"><path d="M19.8 22.6L17.15 20H6.5Q4.2 20 2.6 18.4T1 14.5Q1 12.58 2.19 11.08 3.38 9.57 5.25 9.15 5.33 8.95 5.4 8.76 5.5 8.57 5.55 8.35L1.4 4.2L2.8 2.8L21.2 21.2M21.6 18.75L8.05 5.23Q8.93 4.63 9.91 4.31 10.9 4 12 4 14.93 4 16.96 6.04 19 8.07 19 11 20.73 11.2 21.86 12.5 23 13.78 23 15.5 23 16.5 22.63 17.31 22.25 18.15 21.6 18.75Z" /></svg>
